X: 20281
M: C
L: 1/8
K: D
d2d2 d>AB>c | d2d2 d>AB>c | d2Te2 f>edf | e>dc>B A>Bc>A |\
d2d2 d>AB>c | d2d2 d>AB>c | d2e2 f>ed>f | e2z2 A>Bc>A |
d2d2 d>ABc | d2d2 d>AB>c | d2Te2 f>ed>f | e>dc>B A>Bc>A |\
d2d2 d>AB>c | d2d2 d>AB>c | d2e2 f>ed>e | A>Bc>d |]
.e2.a2 .a2.a2 | a>gf>e d>ef>d | .A2.A2 .A2B>c | d>cd>e f>ed>f |\
e2a2 a2a2 | a>gf>e (d2{c'}d'2) | (d2{c'}d'2) a>gf>e | (d4 d'2)z2 |]


